X:1
T:[ID 3-41]
T:[ID 3-41]
T:Bezeichnung standardisiert: Allegro Allegro 25.
T:Urheber unbekannt Datum in der hier transkribierten schriftlichen Quelle: 1767
C:Urheber unbekannt
C:Datum in der hier transkribierten schriftlichen Quelle: 1767
%%score 1 2
L:1/8
M:2/4
K:G
V:1 treble nm="Primo"
V:2 treble nm="Secondo"
V:1
 D | GABc | dd/B/ e2 | dd/B/ g2 | dd/B/ee/c/ | dd/B/ g2 | fgab | a3 b | c'c'/a/ bb/g/ | aa/f/ ge | %10
 ee/c/ dd/B/ | cc/B/ Bg | a2 f2 | g2 z :: d | de/d/ ec | cd/c/ dc | Bc/B/ cB |{B} A3 d | GABc | %20
 dd/B/ =f2 | ee/c/ g2 | dd/B/ =ff/e/ | ee/B/ c2 | AB^cd | ee/^c/ g2 | ff/d/ a2 | ee/^c/ gg/e/ | %28
 f^cdA | defg | a3 b | c'c'/a/ bb/g/ | aa/f/ gd | ee/c/ dd/B/ | cc/B/ Bg | a2 f2 | g2 z :| %37
V:2
 !fermata!B | BcGA | BB/G/ c2 | BB/G/ B2 | BB/G/cc/A/ | BB/G/ e2 | defg | f3 g | aa/f/ gg/e/ | %9
 ff/d/ ec | cc/A/ BB/G/ | AA/F/ GB | c2 A2 | B2 z :: B | Bc/B/ cB | AB/A/ BA | GA/G/ AG |{G} F3 B | %19
 BcGA | BB/G/ d2 | cc/A/ e2 | BB/G/ dd/B/ | cc/D/{D} E2 | z2 AB | ^cc/A/ e2 | dd/B/ f2 | %27
 ^cc/A/ ee/c/ | dABE | FAde | f3 g | aa/f/ gg/e/ | ff/d/ eB | cc/A/ BB/G/ | AA/G/ GB | c2 A2 | %36
 B2 z :| %37

